Origami/64x64/apps/myspace.svg

<svg width="64" height="64" version="1" xmlns="http://www.w3.org/2000/svg">
 <path d="m4 56v2c0 1.662 1.338 3 3 3h50c1.662 0 3-1.338 3-3v-2c0 1.662-1.338 3-3 3h-50c-1.662 0-3-1.338-3-3z" style="opacity:.2"/>
 <rect transform="matrix(0,-1,-1,0,0,0)" x="-60" y="-60" width="56" height="56" rx="3" ry="3" style="fill:#3e50b4"/>
 <path d="m7 4c-1.662 0-3 1.338-3 3v1c0-1.662 1.338-3 3-3h50c1.662 0 3 1.338 3 3v-1c0-1.662-1.338-3-3-3h-50z" style="fill:#ffffff;opacity:.1"/>
 <g transform="matrix(2 0 0 2 0 .99998)" style="opacity:.2">
  <circle cx="20.5" cy="9.5" r="3.5"/>
  <path d="m20.5 15a3.5 3.4375 0 0 0 -3.5 3.4375 3.5 3.4375 0 0 0 0.0028 0.07653l-0.0028 0.0027v7.4833l7-2.5e-5v-7.5222l-0.0014-0.0026a3.5 3.4375 0 0 0 1e-3 -0.037 3.5 3.4375 0 0 0 -3.5 -3.438z"/>
  <circle cx="14" cy="9.5" r="3"/>
  <path d="m14 14a3 3.125 0 0 0 -3 3.125 3 3.125 0 0 0 0.0023 0.06957l-2e-3 2e-3v6.803h6v-6.8384l-0.0012-0.0023a3 3.125 0 0 0 1e-3 -0.034 3 3.125 0 0 0 -3 -3.125z"/>
  <circle cx="9" cy="9.5" r="2"/>
  <path d="m9 13a2 2.1875 0 0 0 -2 2.1875 2 2.1875 0 0 0 0.00153 0.0487l-0.0015 2e-3v4.762h4v-4.7869l-8e-4 -0.0017a2 2.1875 0 0 0 1e-3 -0.023 2 2.1875 0 0 0 -2 -2.188z"/>
 </g>
 <g transform="scale(2)" style="fill:#92aeff">
  <circle cx="20.5" cy="9.5" r="3.5"/>
  <path d="m20.5 15a3.5 3.4375 0 0 0 -3.5 3.4375 3.5 3.4375 0 0 0 0.0028 0.07653l-0.0028 0.0027v7.4833l7-2.5e-5v-7.5222l-0.0014-0.0026a3.5 3.4375 0 0 0 1e-3 -0.037 3.5 3.4375 0 0 0 -3.5 -3.438z"/>
  <circle cx="14" cy="9.5" r="3"/>
  <path d="m14 14a3 3.125 0 0 0 -3 3.125 3 3.125 0 0 0 0.0023 0.06957l-2e-3 2e-3v6.803h6v-6.8384l-0.0012-0.0023a3 3.125 0 0 0 1e-3 -0.034 3 3.125 0 0 0 -3 -3.125z"/>
  <circle cx="9" cy="9.5" r="2"/>
  <path d="m9 13a2 2.1875 0 0 0 -2 2.1875 2 2.1875 0 0 0 0.00153 0.0487l-0.0015 2e-3v4.762h4v-4.7869l-8e-4 -0.0017a2 2.1875 0 0 0 1e-3 -0.023 2 2.1875 0 0 0 -2 -2.188z"/>
 </g>
</svg>

<svg xmlns="http://www.w3.org/2000/svg" width="64" height="64" version="1">
 <path style="opacity:0.2" d="m 4,56 0,2 c 0,1.662 1.338,3 3,3 l 50,0 c 1.662,0 3,-1.338 3,-3 l 0,-2 c 0,1.662 -1.338,3 -3,3 L 7,59 C 5.338,59 4,57.662 4,56 Z"/>
 <rect style="fill:#3e50b4" width="56" height="56" x="-60" y="-60" rx="3" ry="3" transform="matrix(0,-1,-1,0,0,0)"/>
 <path style="opacity:0.1;fill:#ffffff" d="M 7 4 C 5.338 4 4 5.338 4 7 L 4 8 C 4 6.338 5.338 5 7 5 L 57 5 C 58.662 5 60 6.338 60 8 L 60 7 C 60 5.338 58.662 4 57 4 L 7 4 z"/>
 <g style="opacity:0.2" transform="matrix(2,0,0,2,0,0.99998)">
  <circle cx="20.5" cy="9.5" r="3.5"/>
  <path d="m 20.5,15 a 3.5,3.4375 0 0 0 -3.5,3.4375 3.5,3.4375 0 0 0 0.0028,0.07653 L 17,18.51673 l 0,7.4833 7,-2.5e-5 0,-7.5222 -0.0014,-0.0026 a 3.5,3.4375 0 0 0 0.001,-0.037 3.5,3.4375 0 0 0 -3.5,-3.438 z"/>
  <circle cx="14" cy="9.5" r="3"/>
  <path d="m 14,14 a 3,3.125 0 0 0 -3,3.125 3,3.125 0 0 0 0.0023,0.06957 l -0.002,0.002 0,6.803 6,0 0,-6.8384 -0.0012,-0.0023 a 3,3.125 0 0 0 0.001,-0.034 3,3.125 0 0 0 -3,-3.125 z"/>
  <circle cx="9" cy="9.5" r="2"/>
  <path d="m 9,13 a 2,2.1875 0 0 0 -2,2.1875 2,2.1875 0 0 0 0.00153,0.0487 l -0.0015,0.002 0,4.762 4,0 0,-4.7869 -8e-4,-0.0017 a 2,2.1875 0 0 0 10e-4,-0.023 2,2.1875 0 0 0 -2,-2.188 z"/>
 </g>
 <g style="fill:#92aeff" transform="scale(2,2)">
  <circle cx="20.5" cy="9.5" r="3.5"/>
  <path d="m 20.5,15 a 3.5,3.4375 0 0 0 -3.5,3.4375 3.5,3.4375 0 0 0 0.0028,0.07653 L 17,18.51673 l 0,7.4833 7,-2.5e-5 0,-7.5222 -0.0014,-0.0026 a 3.5,3.4375 0 0 0 0.001,-0.037 3.5,3.4375 0 0 0 -3.5,-3.438 z"/>
  <circle cx="14" cy="9.5" r="3"/>
  <path d="m 14,14 a 3,3.125 0 0 0 -3,3.125 3,3.125 0 0 0 0.0023,0.06957 l -0.002,0.002 0,6.803 6,0 0,-6.8384 -0.0012,-0.0023 a 3,3.125 0 0 0 0.001,-0.034 3,3.125 0 0 0 -3,-3.125 z"/>
  <circle cx="9" cy="9.5" r="2"/>
  <path d="m 9,13 a 2,2.1875 0 0 0 -2,2.1875 2,2.1875 0 0 0 0.00153,0.0487 l -0.0015,0.002 0,4.762 4,0 0,-4.7869 -8e-4,-0.0017 a 2,2.1875 0 0 0 10e-4,-0.023 2,2.1875 0 0 0 -2,-2.188 z"/>
 </g>
</svg>
